X:24
T:Napoleon Crossing The Alps
R:march
D:Harry Bradley: As I Carelessly Did Stray
Z:id:hn-march-24
M:2/4
L:1/8
K:Amix
EF/G/ |: A2 A2 | A/B/A/G/ ED | BdeB| d2 ef/g/ |
a>g e/g/e/d/ | BA GE |1 G2 G>A | G2 EF/G/ :|2 A2 A2 | A2 ef/g/ ||
|: a>g e/g/e/d/ | Bd ef | g>a ge | g2 ef/g/ |
a>g e/g/e/d/ | BA GE |1 G>A GE | G2 ef/g/ :|2 A2 A2 | A2 ||
<end>
<start>
